X: 13260
T: Five Birches
R: waltz
M: 3/4
K: Eminor
g6|g2f2e2|dB-B4-|B2B2cd|e6-|e2d2 c2|B6-|B6|
c6|c2B2A2|GE-E4-|E6|c6|c2B2G2|A6|d2e2f2|
g6|g2f2e2|dB-B4-|B2B2cd|e6-|e2d2 c2|B6-|B6|
c6|c2B2A2|GE-E4-|E6|A6|A2G2F2|G6-|G6-|G6-|G6|
e6|e2d2c2|BG-G4-|G6|e6|e2f2g2|f6|a2g2f2|
g6|g2f2e2|dB-B4|B4B2|c6|c2B2G2|A6|B2c2d2|
e6|e2d2c2|BG-G4|G6|e6|e2f2g2|f6|a2g2f2|
g6|g2f2e2|dB-B4|B6|A6|A2G2F2|G6-|G6|
F6-|F6|G6-|G6|F6-|F6|

